X:163
T:250 to Vigo
R:reel
M:4/4
L:1/8
C:Angus Grant
K:D
fBBA BdFG- | GBdB Acec |1 fBBA BdFG- | GABd cBB2 :|2 fBBA BdFG- | GAfe dBB2 |:
affe decd- | decd ed(3cBA |1 affe decd- | dfaf fee2 :|2 fBBA Bfcd- | dfec dcBA |:
cFFc dGGd | cFFe dB(3Bcd |1 cFFc dGGd | cfec dcBd :|2 cFFc dGGd | cfec defg |:
affd caBc- | caBc dcBA |1 affd caBc- | caaf fee2 :|2 fBBA Bfcd- | dfec dcBA |]
